src/img/star-fill.svg

<svg
 xmlns="http://www.w3.org/2000/svg"
 xmlns:xlink="http://www.w3.org/1999/xlink"
 width="21px" height="18px">
<path fill="rgb(255, 178, 16)"
 d="M18.187,7.638 L13.538,11.371 L15.121,17.146 C15.274,17.701 14.660,18.145 14.186,17.830 L9.226,14.528 L4.266,17.829 C3.792,18.145 3.179,17.700 3.331,17.145 L4.914,11.371 L0.265,7.638 C0.181,7.279 0.53,6.556 0.622,6.530 L6.562,6.264 L8.648,0.655 C8.850,0.116 9.602,0.116 9.803,0.655 L11.890,6.264 L17.830,6.530 C18.111,6.543 18.312,6.717 18.398,6.986 C18.466,7.229 18.383,7.481 18.187,7.638 L18.187,7.638 Z"/>
</svg>

<svg xmlns="http://www.w3.org/2000/svg" width="21" height="18"><path fill="#FFB210" d="m18.19 7.64-4.65 3.73 1.58 5.78c.15.55-.46 1-.93.68l-4.96-3.3-4.96 3.3c-.48.32-1.1-.13-.94-.68l1.58-5.78-4.65-3.73c-.08-.36.27-1.08.36-1.11l5.94-.27 2.09-5.6a.61.61 0 0 1 1.15 0l2.09 5.6 5.94.27c.28.01.48.19.57.46.07.24-.02.5-.21.65Z"/></svg>
